X:112
T:De’ils Dead. RH.112
R:Reel
S:Rev.R.Harrison’s MS,c1815,Cumbria
N:I took a note (a) from the end of the B music
N:and moved to the start. PJH.
O:England
A:Temple Sowerby,Cumbria
Z:vmp.Simon Wilson. Review PJH, 2008.
M:C
L:1/8
Q:2/4=90
K:A
a|cAec dBfd|cAec efae|cAec dBfd|cAAg f2e:|!
|:a|aece fdBg|aece f2e/f/g|aece fdBd|cAAg f2e/f/g|!
aece fdBg|aece f2e/f/g|aefc dBed|cAAa fae:|

